public/images/poses-lg/ExtendedSideAngle.svg

<svg width="800" height="800" fill="none" xmlns="http://www.w3.org/2000/svg"><path d="M682.288 435.321c14.487-5.328 52.26-9.727 49.732 32.648-1.603 26.897-.319 66.954 19.63 81.463 19.951 14.506-33.898 35.422-56.898 12.285-23.004-23.139-27.485-59.07-12.706-82.972 14.785-23.906.242-43.424.242-43.424Z" fill="#000" stroke="#000" stroke-width="5" stroke-miterlimit="10"/><path d="M485.298 434.75c9.345-4.673 30.371-11.681 32.708-16.354 2.338-4.673 0-79.433 2.338-98.123 2.336-18.69 9.343-65.416 18.69-91.115 9.345-25.699 18.691-51.397 21.026-70.088 2.336-18.69-4.549-56.07 18.69-56.07 32.831 0-2.336 46.725-4.671 63.079-2.337 16.354-14.017 81.77-18.691 102.796-4.673 21.026-7.009 25.699-4.673 56.07 2.338 30.372 14.017 109.805 14.017 109.805l-28.035 7.009-46.727 7.008-4.672-14.017Z" fill="#fff" stroke="#000" stroke-width="5" stroke-miterlimit="10"/><path d="M485.298 434.75c9.345-4.673 30.371-11.681 32.708-16.354 2.338-4.673 0-79.433 2.338-98.123 2.336-18.69 9.343-65.416 18.69-91.115 9.345-25.699 18.691-51.397 21.026-70.088 2.336-18.69-4.549-56.07 18.69-56.07 32.831 0-2.336 46.725-4.671 63.079-2.337 16.354-14.017 81.77-18.691 102.796-4.673 21.026-7.009 25.699-4.673 56.07 2.338 30.372 14.017 109.805 14.017 109.805l-28.035 7.009-46.727 7.008-4.672-14.017Z" stroke="#000" stroke-width="5" stroke-miterlimit="10"/><path d="M375.494 514.184c-11.682 4.673-60.743 28.035-81.77 44.389-21.026 16.354-46.725 44.389-58.407 51.399-11.681 7.01-49.061 25.698-63.079 35.045-14.017 9.344-77.097 63.079-88.778 70.087-11.681 7.008-35.044 25.698-39.716 32.705-4.673 7.011 14.017 35.046 18.69 37.38 4.672 2.338 28.035 4.673 30.371 0 2.336-4.672-11.681-7.009-14.017-11.681-2.337-4.673-4.673-9.345 0-18.69 4.672-9.346 21.026-18.693 46.725-32.708 25.699-14.018 112.141-51.4 133.167-60.743 21.027-9.345 105.132-39.718 109.805-42.053 0 0 11.681 7.009 42.052 7.009 30.372 0 79.434-4.672 91.114-7.009 11.68-2.336 65.415-11.681 65.415-11.681s-4.672 23.362-2.337 46.726c2.337 23.364 11.682 93.451 11.682 107.468 0 14.018 2.337 21.027 9.345 23.363 7.009 2.338 79.434 2.338 81.768 0 2.338-2.336 4.672-4.672-4.672-9.344s-25.698-4.672-35.045-7.01c-9.345-2.336-21.025-7.009-25.698-14.015-4.672-7.01-2.337-42.053 0-56.072 2.338-14.016 11.682-58.406 14.017-72.424 2.336-14.017 9.344-39.718 4.673-49.062-4.673-9.344-44.39-11.681-58.407-14.016-14.016-2.338-74.759-9.344-74.759-9.344l-28.036 16.353-84.103-56.072Z" fill="#fff" stroke="#000" stroke-width="5" stroke-miterlimit="10"/><path d="M375.494 514.184c-11.682 4.673-60.743 28.035-81.77 44.389-21.026 16.354-46.725 44.389-58.407 51.399-11.681 7.01-49.061 25.698-63.079 35.045-14.017 9.344-77.097 63.079-88.778 70.087-11.681 7.008-35.044 25.698-39.716 32.705-4.673 7.011 14.017 35.046 18.69 37.38 4.672 2.338 28.035 4.673 30.371 0 2.336-4.672-11.681-7.009-14.017-11.681-2.337-4.673-4.673-9.345 0-18.69 4.672-9.346 21.026-18.693 46.725-32.708 25.699-14.018 112.141-51.4 133.167-60.743 21.027-9.345 105.132-39.718 109.805-42.053 0 0 11.681 7.009 42.052 7.009 30.372 0 79.434-4.672 91.114-7.009 11.68-2.336 65.415-11.681 65.415-11.681s-4.672 23.362-2.337 46.726c2.337 23.364 11.682 93.451 11.682 107.468 0 14.018 2.337 21.027 9.345 23.363 7.009 2.338 79.434 2.338 81.768 0 2.338-2.336 4.672-4.672-4.672-9.344s-25.698-4.672-35.045-7.01c-9.345-2.336-21.025-7.009-25.698-14.015-4.672-7.01-2.337-42.053 0-56.072 2.338-14.016 11.682-58.406 14.017-72.424 2.336-14.017 9.344-39.718 4.673-49.062-4.673-9.344-44.39-11.681-58.407-14.016-14.016-2.338-74.759-9.344-74.759-9.344l-28.036 16.353-84.103-56.072Z" stroke="#000" stroke-width="5" stroke-miterlimit="10"/><path d="M599.573 741.556s-14.77 3.09-24.747 0" stroke="#000" stroke-width="5" stroke-miterlimit="10"/><path d="M588.094 504.839c2.337 18.692-4.673 53.734-7.009 74.76-2.338 21.026-7.01 42.052-7.01 63.08 0 21.027 7.01 109.804 11.682 116.814 4.672 7.009 11.682 7.009 23.363 11.682 11.682 4.671 21.027 4.671 25.697 9.344 4.673 4.672 0 4.671-7.009 4.671-7.008 0-42.051 4.673-51.397 0-9.347-4.671-14.018-23.362-23.363-70.086-9.345-46.727-14.018-109.805-14.018-135.503v-35.044l-7.009-28.036 16.354-14.017 32.708-2.337 7.011 4.672Z" fill="#fff" stroke="#000" stroke-width="5" stroke-miterlimit="10"/><path d="M588.094 504.839c2.337 18.692-4.673 53.734-7.009 74.76-2.338 21.026-7.01 42.052-7.01 63.08 0 21.027 7.01 109.804 11.682 116.814 4.672 7.009 11.682 7.009 23.363 11.682 11.682 4.671 21.027 4.671 25.697 9.344 4.673 4.672 0 4.671-7.009 4.671-7.008 0-42.051 4.673-51.397 0-9.347-4.671-14.018-23.362-23.363-70.086-9.345-46.727-14.018-109.805-14.018-135.503v-35.044l-7.009-28.036 16.354-14.017 32.708-2.337 7.011 4.672Z" stroke="#000" stroke-width="5" stroke-miterlimit="10"/><path d="M375.494 514.184c11.681-4.673 58.406-44.39 70.088-53.735 11.681-9.344 39.716-25.698 39.716-25.698s23.364 2.337 44.389 2.337c21.027 0 35.046-2.337 35.046-2.337s0 7.009 7.009 9.345c7.009 2.337 23.363 0 35.045-4.672 11.68-4.673 32.707 18.691 32.707 18.691s-46.726 16.354-53.733 28.035c0 0-2.338 2.337 0 9.345 2.337 7.009 2.337 9.343 2.337 9.343s-21.027-4.671-35.045 4.673c-14.017 9.345-14.017 28.035-14.017 32.708 0 0-9.345 9.345-30.371 14.016-21.026 4.673-35.045 4.673-49.061 14.017l-84.11-56.068Z" fill="#fff" stroke="#000" stroke-width="5" stroke-miterlimit="10"/><path d="M375.494 514.184c11.681-4.673 58.406-44.39 70.088-53.735 11.681-9.344 39.716-25.698 39.716-25.698s23.364 2.337 44.389 2.337c21.027 0 35.046-2.337 35.046-2.337s0 7.009 7.009 9.345c7.009 2.337 23.363 0 35.045-4.672 11.68-4.673 32.707 18.691 32.707 18.691s-46.726 16.354-53.733 28.035c0 0-2.338 2.337 0 9.345 2.337 7.009 2.337 9.343 2.337 9.343s-21.027-4.671-35.045 4.673c-14.017 9.345-14.017 28.035-14.017 32.708 0 0-9.345 9.345-30.371 14.016-21.026 4.673-35.045 4.673-49.061 14.017l-84.11-56.068Z" stroke="#000" stroke-width="5" stroke-miterlimit="10"/><path d="M642.428 456.971c8.458.065 13.092-6.519 21.818-9.748 13.858-5.119 17.81-27.649 8.983-41.603-11.657-18.428-80.157 18.404-75.212 30.08 2.93 6.913 15.045 15.758 30.682 18.394 5.03.846 13.729 2.877 13.729 2.877Z" fill="#fff" stroke="#000" stroke-width="5" stroke-miterlimit="10"/><path d="M642.428 456.971c8.458.065 13.092-6.519 21.818-9.748 13.858-5.119 17.81-27.649 8.983-41.603-11.657-18.428-80.157 18.404-75.212 30.08 2.93 6.913 15.045 15.758 30.682 18.394 5.03.846 13.729 2.877 13.729 2.877Z" stroke="#000" stroke-width="5" stroke-miterlimit="10"/><path d="M660.873 402.061c-11.785 6.874-28.487 27.643-16.252 40.437 13.756 14.379-.125 13.115-4.027 13.556-3.902.444-14.439-4.404-14.405-2.225.031 2.181 21.658 18.487 40.123 11.206 18.461-7.277 22.947-18.34 23.283-30.204.333-11.865-7.034-26.88-17.475-32.715-10.435-5.836-11.247-.055-11.247-.055Z" fill="#000" stroke="#000" stroke-width="5" stroke-miterlimit="10"/><path d="M565.607 438.547c-10.221 10.221-11.79 22.662-5.549 33.585 9.344 16.353 24.682 18.389 24.682 18.389M459.6 570.255c-4.671 2.337-11.681 7.01-11.681 7.01M90.848 709.862c4.417 9.913 16.021 22.63 16.021 22.63" stroke="#000" stroke-width="5" stroke-miterlimit="10"/></svg>

<svg width="800" height="800" viewBox="0 0 800 800" fill="none" xmlns="http://www.w3.org/2000/svg">
<path d="M682.288 435.321C696.775 429.993 734.548 425.594 732.02 467.969C730.417 494.866 731.701 534.923 751.65 549.432C771.601 563.938 717.752 584.854 694.752 561.717C671.748 538.578 667.267 502.647 682.046 478.745C696.831 454.839 682.288 435.321 682.288 435.321Z" fill="black" stroke="black" stroke-width="5" stroke-miterlimit="10"/>
<path d="M485.298 434.75C494.643 430.077 515.669 423.069 518.006 418.396C520.344 413.723 518.006 338.963 520.344 320.273C522.68 301.583 529.687 254.857 539.034 229.158C548.379 203.459 557.725 177.761 560.06 159.07C562.396 140.38 555.511 103 578.75 103C611.581 103 576.414 149.725 574.079 166.079C571.742 182.433 560.062 247.849 555.388 268.875C550.715 289.901 548.379 294.574 550.715 324.945C553.053 355.317 564.732 434.75 564.732 434.75L536.697 441.759L489.97 448.767L485.298 434.75Z" fill="white" stroke="black" stroke-width="5" stroke-miterlimit="10"/>
<path d="M485.298 434.75C494.643 430.077 515.669 423.069 518.006 418.396C520.344 413.723 518.006 338.963 520.344 320.273C522.68 301.583 529.687 254.857 539.034 229.158C548.379 203.459 557.725 177.761 560.06 159.07C562.396 140.38 555.511 103 578.75 103C611.581 103 576.414 149.725 574.079 166.079C571.742 182.433 560.062 247.849 555.388 268.875C550.715 289.901 548.379 294.574 550.715 324.945C553.053 355.317 564.732 434.75 564.732 434.75L536.697 441.759L489.97 448.767L485.298 434.75Z" stroke="black" stroke-width="5" stroke-miterlimit="10"/>
<path d="M375.494 514.184C363.812 518.857 314.751 542.219 293.724 558.573C272.698 574.927 246.999 602.962 235.317 609.972C223.636 616.982 186.256 635.67 172.238 645.017C158.221 654.361 95.1415 708.096 83.4602 715.104C71.7788 722.112 48.4162 740.802 43.7436 747.809C39.0711 754.82 57.7612 782.855 62.4338 785.189C67.1063 787.527 90.469 789.862 92.8052 785.189C95.1415 780.517 81.1239 778.18 78.7876 773.508C76.4514 768.835 74.1151 764.163 78.7876 754.818C83.4602 745.472 99.814 736.125 125.513 722.11C151.212 708.092 237.654 670.71 258.68 661.367C279.707 652.022 363.812 621.649 368.485 619.314C368.485 619.314 380.166 626.323 410.537 626.323C440.909 626.323 489.971 621.651 501.651 619.314C513.331 616.978 567.066 607.633 567.066 607.633C567.066 607.633 562.394 630.995 564.729 654.359C567.066 677.723 576.411 747.81 576.411 761.827C576.411 775.845 578.748 782.854 585.756 785.19C592.765 787.528 665.19 787.528 667.524 785.19C669.862 782.854 672.196 780.518 662.852 775.846C653.508 771.174 637.154 771.174 627.807 768.836C618.462 766.5 606.782 761.827 602.109 754.821C597.437 747.811 599.772 712.768 602.109 698.749C604.447 684.733 613.791 640.343 616.126 626.325C618.462 612.308 625.47 586.607 620.799 577.263C616.126 567.919 576.409 565.582 562.392 563.247C548.376 560.909 487.633 553.903 487.633 553.903L459.597 570.256L375.494 514.184Z" fill="white" stroke="black" stroke-width="5" stroke-miterlimit="10"/>
<path d="M375.494 514.184C363.812 518.857 314.751 542.219 293.724 558.573C272.698 574.927 246.999 602.962 235.317 609.972C223.636 616.982 186.256 635.67 172.238 645.017C158.221 654.361 95.1415 708.096 83.4602 715.104C71.7788 722.112 48.4162 740.802 43.7436 747.809C39.0711 754.82 57.7612 782.855 62.4338 785.189C67.1063 787.527 90.469 789.862 92.8052 785.189C95.1415 780.517 81.1239 778.18 78.7876 773.508C76.4514 768.835 74.1151 764.163 78.7876 754.818C83.4602 745.472 99.814 736.125 125.513 722.11C151.212 708.092 237.654 670.71 258.68 661.367C279.707 652.022 363.812 621.649 368.485 619.314C368.485 619.314 380.166 626.323 410.537 626.323C440.909 626.323 489.971 621.651 501.651 619.314C513.331 616.978 567.066 607.633 567.066 607.633C567.066 607.633 562.394 630.995 564.729 654.359C567.066 677.723 576.411 747.81 576.411 761.827C576.411 775.845 578.748 782.854 585.756 785.19C592.765 787.528 665.19 787.528 667.524 785.19C669.862 782.854 672.196 780.518 662.852 775.846C653.508 771.174 637.154 771.174 627.807 768.836C618.462 766.5 606.782 761.827 602.109 754.821C597.437 747.811 599.772 712.768 602.109 698.749C604.447 684.733 613.791 640.343 616.126 626.325C618.462 612.308 625.47 586.607 620.799 577.263C616.126 567.919 576.409 565.582 562.392 563.247C548.376 560.909 487.633 553.903 487.633 553.903L459.597 570.256L375.494 514.184Z" stroke="black" stroke-width="5" stroke-miterlimit="10"/>
<path d="M599.573 741.556C599.573 741.556 584.803 744.646 574.826 741.556" stroke="black" stroke-width="5" stroke-miterlimit="10"/>
<path d="M588.094 504.839C590.431 523.531 583.421 558.573 581.085 579.599C578.747 600.625 574.075 621.651 574.075 642.679C574.075 663.706 581.085 752.483 585.757 759.493C590.429 766.502 597.439 766.502 609.12 771.175C620.802 775.846 630.147 775.846 634.817 780.519C639.49 785.191 634.817 785.19 627.808 785.19C620.8 785.19 585.757 789.863 576.411 785.19C567.064 780.519 562.393 761.828 553.048 715.104C543.703 668.377 539.03 605.299 539.03 579.601V544.557L532.021 516.521L548.375 502.504L581.083 500.167L588.094 504.839Z" fill="white" stroke="black" stroke-width="5" stroke-miterlimit="10"/>
<path d="M588.094 504.839C590.431 523.531 583.421 558.573 581.085 579.599C578.747 600.625 574.075 621.651 574.075 642.679C574.075 663.706 581.085 752.483 585.757 759.493C590.429 766.502 597.439 766.502 609.12 771.175C620.802 775.846 630.147 775.846 634.817 780.519C639.49 785.191 634.817 785.19 627.808 785.19C620.8 785.19 585.757 789.863 576.411 785.19C567.064 780.519 562.393 761.828 553.048 715.104C543.703 668.377 539.03 605.299 539.03 579.601V544.557L532.021 516.521L548.375 502.504L581.083 500.167L588.094 504.839Z" stroke="black" stroke-width="5" stroke-miterlimit="10"/>
<path d="M375.494 514.184C387.175 509.511 433.9 469.794 445.582 460.449C457.263 451.105 485.298 434.751 485.298 434.751C485.298 434.751 508.662 437.088 529.687 437.088C550.714 437.088 564.733 434.751 564.733 434.751C564.733 434.751 564.733 441.76 571.742 444.096C578.751 446.433 595.105 444.096 606.787 439.424C618.467 434.751 639.494 458.115 639.494 458.115C639.494 458.115 592.768 474.469 585.761 486.15C585.761 486.15 583.423 488.487 585.761 495.495C588.098 502.504 588.098 504.838 588.098 504.838C588.098 504.838 567.071 500.167 553.053 509.511C539.036 518.856 539.036 537.546 539.036 542.219C539.036 542.219 529.691 551.564 508.665 556.235C487.639 560.908 473.62 560.908 459.604 570.252L375.494 514.184Z" fill="white" stroke="black" stroke-width="5" stroke-miterlimit="10"/>
<path d="M375.494 514.184C387.175 509.511 433.9 469.794 445.582 460.449C457.263 451.105 485.298 434.751 485.298 434.751C485.298 434.751 508.662 437.088 529.687 437.088C550.714 437.088 564.733 434.751 564.733 434.751C564.733 434.751 564.733 441.76 571.742 444.096C578.751 446.433 595.105 444.096 606.787 439.424C618.467 434.751 639.494 458.115 639.494 458.115C639.494 458.115 592.768 474.469 585.761 486.15C585.761 486.15 583.423 488.487 585.761 495.495C588.098 502.504 588.098 504.838 588.098 504.838C588.098 504.838 567.071 500.167 553.053 509.511C539.036 518.856 539.036 537.546 539.036 542.219C539.036 542.219 529.691 551.564 508.665 556.235C487.639 560.908 473.62 560.908 459.604 570.252L375.494 514.184Z" stroke="black" stroke-width="5" stroke-miterlimit="10"/>
<path d="M642.428 456.971C650.886 457.036 655.52 450.452 664.246 447.223C678.104 442.104 682.056 419.574 673.229 405.62C661.572 387.192 593.072 424.024 598.017 435.7C600.947 442.613 613.062 451.458 628.699 454.094C633.729 454.94 642.428 456.971 642.428 456.971Z" fill="white" stroke="black" stroke-width="5" stroke-miterlimit="10"/>
<path d="M642.428 456.971C650.886 457.036 655.52 450.452 664.246 447.223C678.104 442.104 682.056 419.574 673.229 405.62C661.572 387.192 593.072 424.024 598.017 435.7C600.947 442.613 613.062 451.458 628.699 454.094C633.729 454.94 642.428 456.971 642.428 456.971Z" stroke="black" stroke-width="5" stroke-miterlimit="10"/>
<path d="M660.873 402.061C649.088 408.935 632.386 429.704 644.621 442.498C658.377 456.877 644.496 455.613 640.594 456.054C636.692 456.498 626.155 451.65 626.189 453.829C626.22 456.01 647.847 472.316 666.312 465.035C684.773 457.758 689.259 446.695 689.595 434.831C689.928 422.966 682.561 407.951 672.12 402.116C661.685 396.28 660.873 402.061 660.873 402.061Z" fill="black" stroke="black" stroke-width="5" stroke-miterlimit="10"/>
<path d="M565.607 438.547C555.386 448.768 553.817 461.209 560.058 472.132C569.402 488.485 584.74 490.521 584.74 490.521" stroke="black" stroke-width="5" stroke-miterlimit="10"/>
<path d="M459.6 570.255C454.929 572.592 447.919 577.265 447.919 577.265" stroke="black" stroke-width="5" stroke-miterlimit="10"/>
<path d="M90.8477 709.862C95.2648 719.775 106.869 732.492 106.869 732.492" stroke="black" stroke-width="5" stroke-miterlimit="10"/>
</svg>
